packages/ui-icons/svg/Solid/sort.svg

<svg viewBox="0 0 1920 1920" version="1.1" xmlns="http://www.w3.org/2000/svg">
    <path d="M1549.41826,299.604646 L1549.41826,1429.61963 L1753.33251,1225.58751 L1920,1392.25499 L1431.54876,1880.8241 L942.979643,1392.25499 L1109.64713,1225.58751 L1313.67925,1429.61963 L1313.67925,299.604646 L1549.41826,299.604646 Z M488.569113,160 L977.138227,648.569113 L810.470741,815.118729 L606.438622,611.204479 L606.438622,1741.10159 L370.699605,1741.10159 L370.699605,611.204479 L166.667485,815.118729 L-2.21689334e-12,648.569113 L488.569113,160 Z" stroke="none" stroke-width="1" fill-rule="evenodd"/>
</svg>

<svg viewBox="0 0 1920 1920" xmlns="http://www.w3.org/2000/svg">
    <path d="M1549.418 299.605V1429.62l203.915-204.032L1920 1392.255l-488.451 488.57-488.57-488.57 166.668-166.667 204.032 204.032V299.605h235.74ZM488.57 160l488.57 488.57-166.67 166.548-204.031-203.914v1129.898h-235.74V611.204L166.668 815.12 0 648.569 488.57 160Z" fill-rule="evenodd"/>
</svg>
